!!! OTL: Berkowitz184
!!! Chapter: 1
!!! Section: II
!!! Page: 44
!!! Mode: 
!!! Encoder: DJB
**kern
*staff1
*I"Piano
=1-
*clefC4
*k[b-e-]
*g:
*M4/4
4.B-\
8G/
8F#/L
8A/
8G/
8F#/J
=2
4G/
8.G/L
16G/Jk
4G/
8B-\L
8c\J
=3
4d\
8c\L
8d\J
8e-\L
8d\
8c\
8B-\J
=4
4A\
8.A\L
16A\Jk
4A\
8d\L
8c\J
=5
8B-/L
8A/
8G/
8F/J
4E-/
8c\L
8B-\J
=6
8A/L
8G/
8F#/
8E-/J
4F#/
4D/
=7
!!linebreak:original
8.G\L
16B-\Jk
8.A\L
16c\Jk
8B-/L
8A/
8G/
8F#/J
=8
4G/
8.G/L
16G/Jk
4G/
4r
==
*-
